assets/images/sections/intelligent-moving/ordering.svg

<svg width="32" height="32" viewBox="0 0 32 32" version="1.1" xmlns="http://www.w3.org/2000/svg" xmlns:xlink="http://www.w3.org/1999/xlink">
<title>clock</title>
<desc>Created using Figma</desc>
<g id="Canvas" transform="translate(-619 2298)">
<g id="clock">
<g id="Shape">
<use xlink:href="#path0_fill" transform="translate(626.496 -2290.83)" fill="#F1A7B3"/>
</g>
<g id="Shape">
<use xlink:href="#path1_fill" transform="translate(619 -2297.97)" fill="#F1A7B3"/>
</g>
<g id="Shape">
<use xlink:href="#path2_fill" transform="translate(633.976 -2283.02)" fill="#F1A7B3"/>
</g>
</g>
</g>
<defs>
<path id="path0_fill" d="M 15.0421 3.77663L 14.1017 2.75123L 9.08397 7.35277C 8.90407 7.28195 8.70831 7.24257 8.5033 7.24257C 8.33426 7.24257 8.17148 7.26929 8.01871 7.31826L 1.00438 0L 0 0.962713L 7.01412 8.28077C 6.95117 8.45162 6.91673 8.63624 6.91673 8.82894C 6.91673 9.70483 7.62713 10.4157 8.5033 10.4157C 9.37948 10.4157 10.0899 9.70477 10.0899 8.82894C 10.0899 8.67228 10.0668 8.52104 10.0245 8.37809L 15.0421 3.77663Z"/>
<path id="path1_fill" fill-rule="evenodd" d="M 16 0C 20.2736 0 24.2913 1.66089 27.3132 4.677C 30.3355 7.69336 32 11.7039 32 15.9697C 32 20.2356 30.3355 24.2461 27.3132 27.2625C 24.2913 30.2786 20.2734 31.9395 16 31.9395C 11.7266 31.9395 7.70874 30.2786 4.68683 27.2625C 1.66449 24.2461 0 20.2356 0 15.9697C 0 11.7039 1.66449 7.69336 4.68683 4.677C 7.70874 1.66089 11.7264 0 16 0ZM 16.6953 26.2422L 16.6953 30.5312C 24.1978 30.1787 30.2374 24.1521 30.5917 16.6653L 26.2721 16.6653L 26.2721 15.2742L 30.5917 15.2742C 30.2374 7.78735 24.1978 1.76074 16.6952 1.4082L 16.6952 5.69727L 15.3039 5.69727L 15.3039 1.4082C 7.8017 1.76123 1.76251 7.7876 1.40826 15.2742L 5.72717 15.2742L 5.72717 16.6653L 1.40826 16.6653C 1.76251 24.1519 7.8017 30.1782 15.304 30.5312L 15.304 26.2422L 16.6953 26.2422Z"/>
<path id="path2_fill" d="M 7.10525 6.71263L 2.04348 1.11437C 2.04612 1.08445 2.04807 1.05433 2.04807 1.02372C 2.04807 0.457948 1.59012 0 1.02407 0C 0.457948 0 0 0.457948 0 1.02372C 0 1.58588 0.45127 2.04063 1.01148 2.04744L 6.07318 7.6457L 7.10525 6.71263Z"/>
</defs>
</svg>

<svg xmlns="http://www.w3.org/2000/svg" xmlns:xlink="http://www.w3.org/1999/xlink" width="32" height="32"><g fill="#F1A7B3" transform="translate(-619 2298)"><use xlink:href="#A" x="626.496" y="-2290.83"/><use xlink:href="#B" x="619" y="-2297.97"/><use xlink:href="#C" x="633.976" y="-2283.02"/></g><defs><path id="A" d="M15.042 3.777l-.94-1.025-5.018 4.602a1.58 1.58 0 0 0-.581-.11c-.17 0-.332.027-.485.076L1.004 0 0 .963 7.014 8.28a1.58 1.58 0 0 0-.097.548c0 .876.7 1.587 1.587 1.587S10.1 9.705 10.1 8.83c0-.157-.023-.308-.065-.45l5.018-4.6z"/><path id="B" d="M16 0a15.91 15.91 0 0 1 11.313 4.677A15.85 15.85 0 0 1 32 15.97a15.85 15.85 0 0 1-4.687 11.293A15.91 15.91 0 0 1 16 31.94a15.91 15.91 0 0 1-11.313-4.677A15.85 15.85 0 0 1 0 15.97 15.85 15.85 0 0 1 4.687 4.677 15.91 15.91 0 0 1 16 0zm.695 26.242v4.29c7.503-.352 13.542-6.38 13.896-13.866h-4.32v-1.39h4.32C30.237 7.787 24.198 1.76 16.695 1.408v4.29h-1.39v-4.29c-7.502.353-13.54 6.38-13.896 13.866h4.32v1.39h-4.32c.354 7.487 6.393 13.513 13.896 13.866v-4.29h1.39z" fill-rule="evenodd"/><path id="C" d="M7.105 6.713L2.043 1.114l.005-.09C2.048.458 1.6 0 1.024 0S0 .458 0 1.024.45 2.04 1.01 2.047l5.062 5.598 1.032-.933z"/></defs></svg>
